svg/switch.svg

<svg xmlns="http://www.w3.org/2000/svg" viewBox="0 0 24 24"><path d="M13 18h1a1 1 0 0 1 1 1h7v2h-7a1 1 0 0 1-1 1h-4a1 1 0 0 1-1-1H2v-2h7a1 1 0 0 1 1-1h1v-2H8a1 1 0 0 1-1-1V3a1 1 0 0 1 1-1h8a1 1 0 0 1 1 1v12a1 1 0 0 1-1 1h-3zm0-12h1V4h-1zM9 4v2h2V4zm0 4v2h2V8zm0 4v2h2v-2z"/></svg>

<?xml version="1.0" encoding="UTF-8"?><!DOCTYPE svg PUBLIC "-//W3C//DTD SVG 1.1//EN" "http://www.w3.org/Graphics/SVG/1.1/DTD/svg11.dtd"><svg xmlns="http://www.w3.org/2000/svg" xmlns:xlink="http://www.w3.org/1999/xlink" version="1.1" id="mdi-switch" width="24" height="24" viewBox="0 0 24 24"><path d="M13,18H14A1,1 0 0,1 15,19H22V21H15A1,1 0 0,1 14,22H10A1,1 0 0,1 9,21H2V19H9A1,1 0 0,1 10,18H11V16H8A1,1 0 0,1 7,15V3A1,1 0 0,1 8,2H16A1,1 0 0,1 17,3V15A1,1 0 0,1 16,16H13V18M13,6H14V4H13V6M9,4V6H11V4H9M9,8V10H11V8H9M9,12V14H11V12H9Z" /></svg>
